dist/icons/social/address-dark.svg

<svg width="30" height="30" viewBox="0 0 30 30" fill="none" xmlns="http://www.w3.org/2000/svg">
<path d="M29.9921 14.9707C29.9921 16.0254 29.2108 16.8516 28.3253 16.8516H26.6585L26.695 26.2383C26.695 26.3965 26.6846 26.5547 26.6689 26.7129V27.6562C26.6689 28.9512 25.7366 30 24.5854 30H23.752C23.6947 30 23.6374 30 23.5801 29.9941C23.5072 30 23.4343 30 23.3614 30H21.6685H20.4184C19.2673 30 18.3349 28.9512 18.3349 27.6562V26.25V22.5C18.3349 21.4629 17.59 20.625 16.6681 20.625H13.3345C12.4125 20.625 11.6677 21.4629 11.6677 22.5V26.25V27.6562C11.6677 28.9512 10.7353 30 9.58415 30H8.33404H6.67244C6.59431 30 6.51618 29.9941 6.43805 29.9883C6.37554 29.9941 6.31304 30 6.25053 30H5.41713C4.26599 30 3.33362 28.9512 3.33362 27.6562V21.0938C3.33362 21.041 3.33362 20.9824 3.33883 20.9297V16.8516H1.66681C0.729229 16.8516 0 16.0312 0 14.9707C0 14.4434 0.156263 13.9746 0.520878 13.5645L13.8762 0.46875C14.2408 0.0585938 14.6575 0 15.0221 0C15.3867 0 15.8034 0.117188 16.116 0.410156L29.4192 13.5645C29.8359 13.9746 30.0442 14.4434 29.9921 14.9707Z" fill="url(#paint0_linear_71_801)"/>
<defs>
<linearGradient id="paint0_linear_71_801" x1="33.1988" y1="15" x2="-4.08501" y2="15" gradientUnits="userSpaceOnUse">
<stop offset="0.0889102" stop-color="#496072"/>
<stop offset="1" stop-color="#567D9C"/>
</linearGradient>
</defs>
</svg>

<svg width="30" height="30" fill="none" xmlns="http://www.w3.org/2000/svg"><path d="M29.992 14.97c0 1.055-.781 1.882-1.667 1.882H26.66l.036 9.386c0 .159-.01.317-.026.475v.943c0 1.295-.932 2.344-2.084 2.344h-.833c-.057 0-.115 0-.172-.006-.073.006-.146.006-.219.006H20.42c-1.152 0-2.084-1.049-2.084-2.344V22.5c0-1.037-.745-1.875-1.667-1.875h-3.333c-.923 0-1.667.838-1.667 1.875v5.156c0 1.295-.933 2.344-2.084 2.344H6.672c-.078 0-.156-.006-.234-.012a1.956 1.956 0 01-.187.012h-.834c-1.151 0-2.083-1.049-2.083-2.344v-6.562c0-.053 0-.112.005-.164v-4.078H1.667C.729 16.852 0 16.032 0 14.97c0-.528.156-.996.52-1.406L13.877.469c.365-.41.782-.469 1.146-.469.365 0 .781.117 1.094.41L29.42 13.565c.417.41.625.878.573 1.406z" fill="url(#paint0_linear_71_801)"/><defs><linearGradient id="paint0_linear_71_801" x1="33.199" y1="15" x2="-4.085" y2="15" gradientUnits="userSpaceOnUse"><stop offset=".089" stop-color="#496072"/><stop offset="1" stop-color="#567D9C"/></linearGradient></defs></svg>
